X:45
T:Bath Waltz, The
S:John Moore's Book 2
Z:Transcribed by Steve Mansfield 04/2021
%%VWML: Moore1-4494-p35-0
F:http://www.vwml.org/record/Moore2/4494/p35
M:3/8
L:1/8
N:Triplet is editorial, D/E/F/ in Mss
K:G
"*"(3D/E/F/ | GGG | G2(D/G/) | BBB | B2(G/B/) | 
d2(B/G/) | e2(c/A/) | FFF | G2 :|
|: B/d/ |(d/c/)c (A/F/) | (A/G/)G (B/d/) | (d/c/)c (A/F/) | G2 (B/d/) | 
(d/c/e/c/A/F/) | (A/G/)G (B/d/) | d/c/e/c/A/F/ | G2 :|
|: D |(GFG) | A2B | cEA | (GF) D | 
GFG | efg | d/e/d/c/B/A/ | G2 :|

